src/icons/solid/symbols/signal-antenna.svg

<svg width="24" height="24" viewBox="0 0 24 24" fill="none" xmlns="http://www.w3.org/2000/svg">
<g clip-path="url(#clip0_4704_695)">
<path d="M11.9946 7.63974C13.1446 7.65265 14.1682 8.3949 14.5552 9.50204C15.0788 10.966 14.3358 12.5916 12.9116 13.1192V21.0636C12.9116 21.5803 12.5022 22.0001 11.9995 22.0001C11.497 21.9998 11.0884 21.5801 11.0884 21.0636V13.1192C10.0097 12.7101 9.27685 11.6656 9.27685 10.4815C9.25594 8.93336 10.4786 7.65373 11.9946 7.63974Z" fill="#3C3B44"/>
<path d="M4.354 2.27841C4.72047 1.90174 5.29669 1.91272 5.65282 2.27841C6.00893 2.64442 6.00893 3.23662 5.65282 3.60263C3.84099 5.45411 2.83554 7.9732 2.83544 10.5997C2.82497 13.2264 3.84088 15.7354 5.65282 17.587C6.00883 17.953 6.00885 18.5443 5.65282 18.9102C5.48525 19.0825 5.24431 19.1905 5.00341 19.1905C4.76263 19.1904 4.5215 19.0932 4.354 18.9102C-0.117876 14.3136 -0.118122 6.87492 4.354 2.27841Z" fill="#3C3B44"/>
<path d="M18.3472 2.27841C18.7137 1.90179 19.2899 1.91264 19.646 2.27841C24.1182 6.875 24.1181 14.3136 19.646 18.9102C19.4784 19.0825 19.2375 19.1905 18.9966 19.1905C18.7557 19.1905 18.5147 19.0932 18.3472 18.9102C17.9914 18.5443 17.9915 17.9529 18.3472 17.587L18.3579 17.5763C22.1075 13.7116 22.1072 7.45649 18.3472 3.60263C17.9913 3.2366 17.9911 2.64435 18.3472 2.27841Z" fill="#3C3B44"/>
<path d="M15.7495 4.92684C16.1056 4.56089 16.6922 4.561 17.0483 4.92684H17.0591V4.95907C20.086 8.09168 20.086 13.1409 17.0591 16.2628C16.8915 16.435 16.6505 16.5313 16.4097 16.5313C16.1583 16.5313 15.9276 16.435 15.7495 16.252C15.383 15.8753 15.3936 15.2831 15.7495 14.9171L15.7602 14.9063C18.0749 12.5165 18.0747 8.64087 15.7495 6.26181C15.3936 5.89578 15.3935 5.2928 15.7495 4.92684Z" fill="#3C3B44"/>
<path d="M6.95165 4.92684C7.30776 4.56083 7.88461 4.56083 8.24072 4.92684C8.60708 5.30353 8.59652 5.89582 8.24072 6.26181C5.92603 8.65163 5.92603 12.5273 8.24072 14.9171C8.49175 15.2506 8.4917 15.7134 8.24072 16.047C7.9265 16.4668 7.34965 16.5427 6.95165 16.2306C3.9248 13.098 3.92483 8.04869 6.95165 4.92684Z" fill="#3C3B44"/>
</g>
<defs>
<clipPath id="clip0_4704_695">
<rect width="24" height="24" fill="white"/>
</clipPath>
</defs>
</svg>

<svg xmlns="http://www.w3.org/2000/svg" width="24" height="24" fill="none" viewBox="0 0 24 24"><g fill="currentColor" clip-path="url(#a)"><path d="M11.995 7.64a2.755 2.755 0 0 1 2.56 1.862c.524 1.464-.22 3.09-1.643 3.617v7.945c0 .516-.41.936-.913.936a.925.925 0 0 1-.91-.936v-7.945a2.82 2.82 0 0 1-1.812-2.637c-.021-1.549 1.202-2.828 2.718-2.842M4.354 2.278a.897.897 0 0 1 1.299 0 .954.954 0 0 1 0 1.325C3.84 5.454 2.836 7.973 2.835 10.6a9.93 9.93 0 0 0 2.818 6.987.953.953 0 0 1 0 1.323.93.93 0 0 1-.65.28.88.88 0 0 1-.649-.28c-4.472-4.596-4.472-12.035 0-16.632m13.993 0a.897.897 0 0 1 1.299 0c4.472 4.597 4.472 12.036 0 16.632a.93.93 0 0 1-.65.28.88.88 0 0 1-.649-.28.954.954 0 0 1 0-1.323l.01-.01c3.75-3.865 3.75-10.12-.01-13.974a.954.954 0 0 1 0-1.325"/><path d="M15.75 4.927a.906.906 0 0 1 1.298 0h.011v.032c3.027 3.133 3.027 8.182 0 11.304a.92.92 0 0 1-.65.268.9.9 0 0 1-.66-.279.96.96 0 0 1 0-1.335l.011-.01c2.315-2.39 2.315-6.266-.01-8.645a.97.97 0 0 1 0-1.335m-8.798 0a.894.894 0 0 1 1.289 0 .96.96 0 0 1 0 1.335c-2.315 2.39-2.315 6.265 0 8.655a.94.94 0 0 1 0 1.13.905.905 0 0 1-1.29.184c-3.026-3.133-3.026-8.182 0-11.304"/></g><defs><clipPath id="a"><path fill="currentColor" d="M0 0h24v24H0z"/></clipPath></defs></svg>
